svg/white/neu.svg

<svg height="32" viewBox="0 0 32 32" width="32" xmlns="http://www.w3.org/2000/svg"><path d="m16 32c-8.836556 0-16-7.163444-16-16s7.163444-16 16-16 16 7.163444 16 16-7.163444 16-16 16zm0-28c-6.62465753 0-12 5.37534247-12 12 0 6.6246575 5.37534247 12 12 12 6.6246575 0 12-5.3753425 12-12 0-6.62465753-5.3753425-12-12-12zm-.0493151 19.6191781-6.4767123-3.8383562v-7.6684931l6.4767123-3.83013702 6.4767124 3.83013702v7.6684931zm-2.9260274-12.8712329-.1315068.0821918 6.1068493 9.6493151v-9.6575343l-3.0493151-1.80821917zm-.1972602 10.2821918 3.1232876 1.8575342 2.8520548-1.6931507-5.9753424-9.4438356zm-2.7287672-8.5479452v6.9369863l2.1780822 1.2904109v-9.5178082zm9.4520548 8.2684931 2.2520548-1.3315068v-6.9369863l-2.2520548-1.3315069z" fill="#fff"/></svg>

<?xml version="1.0" encoding="UTF-8"?>
<svg width="32px" height="32px" viewBox="0 0 32 32" version="1.1" xmlns="http://www.w3.org/2000/svg" xmlns:xlink="http://www.w3.org/1999/xlink">
    <!-- Generator: Sketch 50 (54983) - http://www.bohemiancoding.com/sketch -->
    <title>white/neu</title>
    <desc>Created with Sketch.</desc>
    <defs></defs>
    <g id="white/neu" stroke="none" stroke-width="1" fill="none" fill-rule="evenodd">
        <path d="M16,32 C7.163444,32 0,24.836556 0,16 C0,7.163444 7.163444,0 16,0 C24.836556,0 32,7.163444 32,16 C32,24.836556 24.836556,32 16,32 Z M16,4 C9.37534247,4 4,9.37534247 4,16 C4,22.6246575 9.37534247,28 16,28 C22.6246575,28 28,22.6246575 28,16 C28,9.37534247 22.6246575,4 16,4 Z M15.9506849,23.6191781 L9.4739726,19.7808219 L9.4739726,12.1123288 L15.9506849,8.28219178 L22.4273973,12.1123288 L22.4273973,19.7808219 L15.9506849,23.6191781 Z M13.0246575,10.7479452 L12.8931507,10.830137 L19,20.4794521 L19,10.8219178 L15.9506849,9.01369863 L13.0246575,10.7479452 Z M12.8273973,21.030137 L15.9506849,22.8876712 L18.8027397,21.1945205 L12.8273973,11.7506849 L12.8273973,21.030137 Z M10.0986301,12.4821918 L10.0986301,19.4191781 L12.2767123,20.709589 L12.2767123,11.1917808 L10.0986301,12.4821918 Z M19.5506849,20.7506849 L21.8027397,19.4191781 L21.8027397,12.4821918 L19.5506849,11.1506849 L19.5506849,20.7506849 Z" id="Combined-Shape" fill="#FFFFFF" fill-rule="nonzero"></path>
        <g id="Neumark-(NEU)" transform="translate(4.000000, 4.000000)"></g>
    </g>
</svg>
